X:872
T:Reel 872
M:4/4
K:Gmaj
L:1/8
Bd|cE (3EDE cdec|d>c (3dBF EcAG|AD (3DED EGFG|ADEF G2:|dc|BG (3GFG dGBG|DF (3FEF ABcA|dG (3GGG BGdG|cAFA DG^FA|DG (3GFG DGBG|cABG AFDF|GABc dgfg| (3efg fa gedc|
